symbols/web/event/materialsymbolssharp/event_wght200gradN25_24px.svg

<svg xmlns="http://www.w3.org/2000/svg" height="24" width="24"><path d="M14.875 17.95q-.85 0-1.45-.613-.6-.612-.6-1.462 0-.875.6-1.475.6-.6 1.45-.6.875 0 1.475.6.6.6.6 1.475 0 .85-.6 1.462-.6.613-1.475.613ZM4.15 20.85V5.125h3.375V2.9h1v2.225h7.025V2.9h.925v2.225h3.375V20.85Zm.9-.925h13.9V10.65H5.05Zm0-10.2h13.9V6.05H5.05Zm0 0V6.05v3.675Z"/></svg>

<svg xmlns="http://www.w3.org/2000/svg" height="24" width="24"><path d="M14.875 17.95Q14.025 17.95 13.425 17.337Q12.825 16.725 12.825 15.875Q12.825 15 13.425 14.4Q14.025 13.8 14.875 13.8Q15.75 13.8 16.35 14.4Q16.95 15 16.95 15.875Q16.95 16.725 16.35 17.337Q15.75 17.95 14.875 17.95ZM4.15 20.85V5.125H7.525V2.9H8.525V5.125H15.55V2.9H16.475V5.125H19.85V20.85ZM5.05 19.925H18.95V10.65H5.05ZM5.05 9.725H18.95V6.05H5.05ZM5.05 9.725V6.05V9.725Z"/></svg>
